!!!COM: Manuel de Falla (y Matheu)
!!!OTL: [T312_Fal-w6p1m1-21]
**kern	**dynam	**kern	**dynam	**kern	**dynam	**kern	**dynam
*grp:B	*	*grp:A	*	*grp:A	*	*grp:B	*
*part4	*part4	*part3	*part3	*part2	*	*part1	*
*staff4	*	*staff3	*	*staff2	*	*staff1	*
*I"Castanets	*	*I"Timpani	*	*I"2 Trumpets in C	*	*I"2 Horns in F	*
*I'Cast.	*	*I'Timp.	*	*I'C Tpt.	*	*I'F Hn.	*
*ICidio	*	*ICidio	*	*ICbras	*	*ICbras	*
*Icast	*	*Itimpa	*	*Itromp	*	*Icor	*
*stria1	*	*	*	*	*	*	*
*clefX	*	*clefF4	*	*clefG2	*	*clefG2	*
*	*	*	*	*	*	*ITrd4c7	*
*k[]	*	*k[]	*	*k[]	*	*k[b-]	*
*C:	*	*	*	*	*	*	*
*M3/4	*	*M3/4	*	*M3/4	*	*M3/4	*
=1	=1	=1	=1	=1	=1	=1	=1
!	!	!	!	!	!	!LO:TX:t=[[quarter]=120]	!
4%3r	.	4AA-X	ff	4%3r	.	4%3r	.
.	.	4E-X	.	.	.	.	.
.	.	4AA-	.	.	.	.	.
=2	=2	=2	=2	=2	=2	=2	=2
4%3r	.	4E-X	.	4%3r	.	4%3r	.
.	.	4AA-X	.	.	.	.	.
.	.	4E-	.	.	.	.	.
=3	=3	=3	=3	=3	=3	=3	=3
4%3r	.	4AA-X	.	4%3r	.	4%3r	.
.	.	4E-X	.	.	.	.	.
.	.	4AA-	.	.	.	.	.
=4	=4	=4	=4	=4	=4	=4	=4
4%3r	.	4E-X	.	4r	.	4%3r	.
.	.	4AA-X	.	4r	.	.	.
!	!	!	!	!LO:TX:a:t=a 2	!LO:DY:t=%s marcato	!	!
.	.	4E-	.	4e-X	f	.	.
=5	=5	=5	=5	=5	=5	=5	=5
4%3r	.	4AA-X	.	4a-X	.	4%3r	.
.	.	4E-X	.	4e-X	.	.	.
.	.	4AA-	.	4a-	.	.	.
=6	=6	=6	=6	=6	=6	=6	=6
4%3r	.	4E-X	.	4b-X	.	4%3r	.
.	.	4AA-X	.	4a-X	.	.	.
.	.	4E-	.	4b-	.	.	.
=7	=7	=7	=7	=7	=7	=7	=7
4%3r	.	4AA-X	.	4cc	.	4%3r	.
.	.	4E-X	.	4ee-X	.	.	.
.	.	4AA-	.	4cc	.	.	.
=8	=8	=8	=8	=8	=8	=8	=8
4%3r	.	4E-X	.	4b-X	.	4%3r	.
.	.	4AA-X	.	4a-X	.	.	.
.	.	4E-	.	4b-	.	.	.
=9	=9	=9	=9	=9	=9	=9	=9
4%3r	.	4AA-X	.	4a-X	.	4%3r	.
.	.	4E-X	.	4e-X	.	.	.
.	.	4AA-	.	4a-	.	.	.
=10	=10	=10	=10	=10	=10	=10	=10
4%3r	.	4E-X	.	4b-X	.	4%3r	.
.	.	4AA-X	.	4a-X	.	.	.
.	.	4E-	.	4b-	.	.	.
=11	=11	=11	=11	=11	=11	=11	=11
4%3r	.	4AA-X	.	4cc	.	4%3r	.
.	.	4E-X	.	4ee-X	.	.	.
.	.	4AA-	.	4cc	.	.	.
=12	=12	=12	=12	=12	=12	=12	=12
4%3r	.	4E-X	.	4b-X	.	4%3r	.
.	.	4AA-X	.	4a-X	.	.	.
.	.	4E-	.	4b-	.	.	.
=13	=13	=13	=13	=13	=13	=13	=13
!	!	!	!	!	!	!LO:TX:a:t=a 2	!LO:DY:t=%s marcato
4%3r	.	4AA-X	.	4a-X	.	2.c	f
.	.	4E-X	.	4e-X	.	.	.
.	.	4AA-	.	4a-	.	.	.
=14	=14	=14	=14	=14	=14	=14	=14
4%3r	.	4E-X	.	4b-X	.	2.e-X	.
.	.	4AA-X	.	4a-X	.	.	.
.	.	4E-	.	4b-	.	.	.
=15	=15	=15	=15	=15	=15	=15	=15
4%3r	.	4AA-X	.	4a-X	.	2.c	.
.	.	4E-X	.	4e-X	.	.	.
.	.	4AA-	.	4a-	.	.	.
=16	=16	=16	=16	=16	=16	=16	=16
4%3r	.	4E-X	.	4b-X	.	2.e-X	.
.	.	4AA-X	.	4a-X	.	.	.
.	.	4E-	.	4b-	.	.	.
=17	=17	=17	=17	=17	=17	=17	=17
4%3r	.	4AA-X	.	[2.a-X	.	[2.c	.
.	.	4E-X	.	.	.	.	.
.	.	4AA-	.	.	.	.	.
=18	=18	=18	=18	=18	=18	=18	=18
4%3r	.	4E-X	.	2.a-_	.	2.c_	.
.	.	4AA-X	.	.	.	.	.
.	.	4E-	.	.	.	.	.
=19	=19	=19	=19	=19	=19	=19	=19
4%3r	.	4AA-X	.	2.a-_	.	2.c_	.
.	.	4E-X	.	.	.	.	.
.	.	4AA-	.	.	.	.	.
=20	=20	=20	=20	=20	=20	=20	=20
4%3r	.	4E-X	.	2.a-]	.	2.c]	.
.	.	4AA-X	.	.	.	.	.
.	.	4E-	.	.	.	.	.
=21	=21	=21	=21	=21	=21	=21	=21
2.Re\tt	ff	4AA-X^	.	4%3r	.	4%3r	.
.	.	4r	.	.	.	.	.
.	.	4r	.	.	.	.	.
=	=	=	=	=	=	=	=
*-	*-	*-	*-	*-	*-	*-	*-
!!!system-decoration: [(s1,s2,s3,s4)]
